!!!OTL: AM URAL DA BIN ICH GEBOREN
!!!ARE: Europa, Mitteleuropa, Deutschland, Wetterau
!!!SCT: B0722
!!!YEM: Copyright 1995, estate of Helmut Schaffrath.
**kern
*ICvox
*Ivox
*M6/8
*k[b-e-]
*B-:
{8a
=1
8dd
8cc
8b-
8cc
8b-
8g
=2
4.f
4d}
{8dd
=3
8.cc
16cc
8cc
8cc
8ee-
8dd
=4
4.b-
4r}
{8a
=5
8dd
8cc
8b-
8cc
8b-
8g
=6
4.f
4d}
{8dd
=7
8.cc
16cc
8cc
8cc
8ee-
8dd
=8
4.b-
4r}
{8f
=9
8cc
4cc
8ee-
8dd
8cc
=10
4.dd
4r}
{16b-
16cc
=11
8dd
8cc
8dd
8ee-
8g
8cc
=12
4b-
8a
4b-}
==
!!!AGN: ???
!!!ONB: ESAC (Essen Associative Code) Database: BOEHME
!!!AMT: compound duple
!!!AIN: vox
!!!EED: Helmut Schaffrath
!!!EEV: 1.0
*-
